optimized/24/outline/reservation.svg

<svg viewBox="0 0 24 24" xmlns="http://www.w3.org/2000/svg" fill="currentColor" data-slot="icon">
  <g clip-path="url(#clip0_2208_12293)">
    <path d="M16.625 14.4583C16.625 14.0441 16.2892 13.7083 15.875 13.7083C15.4608 13.7083 15.125 14.0441 15.125 14.4583V16.5366C15.125 17.1721 15.4696 17.7577 16.0251 18.0664L17.0108 18.614C17.3729 18.8151 17.8295 18.6847 18.0306 18.3226C18.2318 17.9605 18.1013 17.5039 17.7392 17.3027L16.7536 16.7551C16.6742 16.711 16.625 16.6274 16.625 16.5366V14.4583Z"/>
    <path d="M7.875 1.875C8.28921 1.875 8.625 2.21079 8.625 2.625V3.375H14.125V2.625C14.125 2.21079 14.4608 1.875 14.875 1.875C15.2892 1.875 15.625 2.21079 15.625 2.625V3.375H17.375C18.8938 3.375 20.125 4.60622 20.125 6.125V13.1337C20.906 14.0834 21.375 15.2994 21.375 16.625C21.375 19.6626 18.9126 22.125 15.875 22.125C14.2867 22.125 12.8556 21.4517 11.8516 20.375H5.375C3.85622 20.375 2.625 19.1438 2.625 17.625V6.125C2.625 4.60622 3.85622 3.375 5.375 3.375H7.125V2.625C7.125 2.21079 7.46079 1.875 7.875 1.875ZM18.625 6.125C18.625 5.43464 18.0654 4.875 17.375 4.875H15.625V5.625C15.625 6.03921 15.2892 6.375 14.875 6.375C14.4608 6.375 14.125 6.03921 14.125 5.625V4.875H8.625V5.625C8.625 6.03921 8.28921 6.375 7.875 6.375C7.46079 6.375 7.125 6.03921 7.125 5.625V4.875H5.375C4.68464 4.875 4.125 5.43464 4.125 6.125V8.375H18.625V6.125ZM18.625 9.875H4.125V17.625C4.125 18.3154 4.68464 18.875 5.375 18.875H10.8548C10.5465 18.1882 10.375 17.4266 10.375 16.625C10.375 13.5874 12.8374 11.125 15.875 11.125C16.8768 11.125 17.816 11.3928 18.625 11.8608V9.875ZM19.875 16.625C19.875 14.4159 18.0841 12.625 15.875 12.625C13.6659 12.625 11.875 14.4159 11.875 16.625C11.875 18.8341 13.6659 20.625 15.875 20.625C18.0841 20.625 19.875 18.8341 19.875 16.625Z"/>
  </g>
  <defs>
    <clipPath id="clip0_2208_12293">
      <rect width="24" height="24"/>
    </clipPath>
  </defs>
</svg>

<svg xmlns="http://www.w3.org/2000/svg" viewBox="0 0 24 24" fill="currentColor" data-slot="icon">
  <g clip-path="url(#a)">
    <path d="M16.625 14.458a.75.75 0 0 0-1.5 0v2.079c0 .635.345 1.22.9 1.53l.986.547a.75.75 0 1 0 .728-1.311l-.985-.548a.25.25 0 0 1-.129-.218v-2.079Z"/>
    <path d="M7.875 1.875a.75.75 0 0 1 .75.75v.75h5.5v-.75a.75.75 0 0 1 1.5 0v.75h1.75a2.75 2.75 0 0 1 2.75 2.75v7.009a5.5 5.5 0 0 1-8.273 7.241H5.375a2.75 2.75 0 0 1-2.75-2.75v-11.5a2.75 2.75 0 0 1 2.75-2.75h1.75v-.75a.75.75 0 0 1 .75-.75Zm10.75 4.25c0-.69-.56-1.25-1.25-1.25h-1.75v.75a.75.75 0 0 1-1.5 0v-.75h-5.5v.75a.75.75 0 0 1-1.5 0v-.75h-1.75c-.69 0-1.25.56-1.25 1.25v2.25h14.5v-2.25Zm0 3.75h-14.5v7.75c0 .69.56 1.25 1.25 1.25h5.48a5.5 5.5 0 0 1 7.77-7.014V9.875Zm1.25 6.75a4 4 0 1 0-8 0 4 4 0 0 0 8 0Z"/>
  </g>
  <defs>
    <clipPath id="a">
      <rect width="24" height="24"/>
    </clipPath>
  </defs>
</svg>
